telma/img/buttons/file-form/SaveAs.svg

<?xml version="1.0" encoding="UTF-8" standalone="no"?>
<!-- Created with Inkscape (http://www.inkscape.org/) -->
<svg
   xmlns:dc="http://purl.org/dc/elements/1.1/"
   xmlns:cc="http://creativecommons.org/ns#"
   xmlns:rdf="http://www.w3.org/1999/02/22-rdf-syntax-ns#"
   xmlns:svg="http://www.w3.org/2000/svg"
   xmlns="http://www.w3.org/2000/svg"
   xmlns:xlink="http://www.w3.org/1999/xlink"
   xmlns:sodipodi="http://sodipodi.sourceforge.net/DTD/sodipodi-0.dtd"
   xmlns:inkscape="http://www.inkscape.org/namespaces/inkscape"
   width="600"
   height="600"
   id="svg2"
   sodipodi:version="0.32"
   inkscape:version="0.46"
   version="1.0"
   sodipodi:docname="SaveAs.svg"
   inkscape:output_extension="org.inkscape.output.svg.inkscape"
   inkscape:export-filename="D:\Documents and Settings\Маша\Рабочий стол\TELMA.V20\Projects\Interfaces\BaseInterface\ProblemPanel\images\SaveAs.png"
   inkscape:export-xdpi="4.8006859"
   inkscape:export-ydpi="4.8006859">
  <defs
     id="defs4">
    <linearGradient
       inkscape:collect="always"
       id="linearGradient5744">
      <stop
         style="stop-color:#ff7600;stop-opacity:1;"
         offset="0"
         id="stop5746" />
      <stop
         style="stop-color:#ff7600;stop-opacity:0;"
         offset="1"
         id="stop5748" />
    </linearGradient>
    <linearGradient
       id="linearGradient5736">
      <stop
         style="stop-color:#ffb657;stop-opacity:1;"
         offset="0"
         id="stop5738" />
      <stop
         style="stop-color:#ffb657;stop-opacity:0;"
         offset="1"
         id="stop5740" />
    </linearGradient>
    <linearGradient
       inkscape:collect="always"
       id="linearGradient5689">
      <stop
         style="stop-color:#389ce5;stop-opacity:1;"
         offset="0"
         id="stop5691" />
      <stop
         style="stop-color:#389ce5;stop-opacity:0;"
         offset="1"
         id="stop5693" />
    </linearGradient>
    <linearGradient
       id="linearGradient5658">
      <stop
         style="stop-color:#adaeb1;stop-opacity:1;"
         offset="0"
         id="stop5660" />
      <stop
         style="stop-color:#adaeb1;stop-opacity:0;"
         offset="1"
         id="stop5662" />
    </linearGradient>
    <linearGradient
       id="linearGradient5580">
      <stop
         style="stop-color:#5938ff;stop-opacity:1;"
         offset="0"
         id="stop5582" />
      <stop
         style="stop-color:#5938ff;stop-opacity:0;"
         offset="1"
         id="stop5584" />
    </linearGradient>
    <linearGradient
       id="linearGradient5572">
      <stop
         style="stop-color:#ffffff;stop-opacity:1;"
         offset="0"
         id="stop5574" />
      <stop
         style="stop-color:#ffffff;stop-opacity:0;"
         offset="1"
         id="stop5576" />
    </linearGradient>
    <linearGradient
       id="linearGradient4711">
      <stop
         style="stop-color:#ffffff;stop-opacity:1;"
         offset="0"
         id="stop4713" />
      <stop
         style="stop-color:#ffffff;stop-opacity:0;"
         offset="1"
         id="stop4715" />
    </linearGradient>
    <linearGradient
       id="linearGradient3854">
      <stop
         style="stop-color:#f4eeac;stop-opacity:1;"
         offset="0"
         id="stop3856" />
      <stop
         style="stop-color:#bbb08d;stop-opacity:0;"
         offset="1"
         id="stop3858" />
    </linearGradient>
    <linearGradient
       id="linearGradient3720">
      <stop
         style="stop-color:#000000;stop-opacity:1;"
         offset="0"
         id="stop3722" />
      <stop
         style="stop-color:#000000;stop-opacity:0;"
         offset="1"
         id="stop3724" />
    </linearGradient>
    <linearGradient
       inkscape:collect="always"
       id="linearGradient3267">
      <stop
         style="stop-color:#ff0000;stop-opacity:1;"
         offset="0"
         id="stop3269" />
      <stop
         style="stop-color:#ff0000;stop-opacity:0;"
         offset="1"
         id="stop3271" />
    </linearGradient>
    <linearGradient
       id="linearGradient3253">
      <stop
         style="stop-color:#ff0000;stop-opacity:1;"
         offset="0"
         id="stop3255" />
      <stop
         style="stop-color:#ff0000;stop-opacity:0;"
         offset="1"
         id="stop3257" />
    </linearGradient>
    <linearGradient
       id="linearGradient4618">
      <stop
         style="stop-color:#29b63e;stop-opacity:0.74703556;"
         offset="0"
         id="stop4620" />
      <stop
         style="stop-color:#ffffff;stop-opacity:0;"
         offset="1"
         id="stop4622" />
    </linearGradient>
    <linearGradient
       id="linearGradient3176">
      <stop
         id="stop3178"
         offset="0"
         style="stop-color:#ff0000;stop-opacity:1;" />
      <stop
         id="stop3180"
         offset="1"
         style="stop-color:#00d63b;stop-opacity:0;" />
    </linearGradient>
    <linearGradient
       id="linearGradient3170">
      <stop
         style="stop-color:#ff0000;stop-opacity:1;"
         offset="0"
         id="stop3172" />
      <stop
         style="stop-color:#00d63b;stop-opacity:0;"
         offset="1"
         id="stop3174" />
    </linearGradient>
    <linearGradient
       id="linearGradient3164">
      <stop
         id="stop3166"
         offset="0"
         style="stop-color:#ff0000;stop-opacity:1;" />
      <stop
         id="stop3168"
         offset="1"
         style="stop-color:#00d63b;stop-opacity:0;" />
    </linearGradient>
    <linearGradient
       id="linearGradient5422">
      <stop
         style="stop-color:#d30000;stop-opacity:1;"
         offset="0"
         id="stop5424" />
      <stop
         style="stop-color:#ff0000;stop-opacity:0;"
         offset="1"
         id="stop5426" />
    </linearGradient>
    <inkscape:perspective
       sodipodi:type="inkscape:persp3d"
       inkscape:vp_x="0 : 526.18109 : 1"
       inkscape:vp_y="6.1230318e-14 : 1000 : 0"
       inkscape:vp_z="744.09448 : 526.18109 : 1"
       inkscape:persp3d-origin="372.04724 : 350.78739 : 1"
       id="perspective10" />
    <linearGradient
       inkscape:collect="always"
       xlink:href="#linearGradient3253"
       id="linearGradient3454"
       gradientUnits="userSpaceOnUse"
       x1="-74.741104"
       y1="-86.035858"
       x2="91.101135"
       y2="-163.68266" />
    <linearGradient
       inkscape:collect="always"
       xlink:href="#linearGradient3267"
       id="linearGradient3456"
       gradientUnits="userSpaceOnUse"
       gradientTransform="matrix(4.9810849,0.3788437,-5.1235048,0.5090201,259.47826,252.87199)"
       x1="123.15675"
       y1="130.17917"
       x2="131.75237"
       y2="121.43824" />
    <radialGradient
       inkscape:collect="always"
       xlink:href="#linearGradient5658"
       id="radialGradient5666"
       cx="331.67499"
       cy="453.25009"
       fx="331.67499"
       fy="453.25009"
       r="109.59375"
       gradientTransform="matrix(2.668377,0.3560931,-0.1829153,1.3706722,-430.10902,-260.0676)"
       gradientUnits="userSpaceOnUse" />
    <linearGradient
       inkscape:collect="always"
       xlink:href="#linearGradient5689"
       id="linearGradient5695"
       x1="112.14539"
       y1="451.04211"
       x2="557.64539"
       y2="-75.520386"
       gradientUnits="userSpaceOnUse" />
    <linearGradient
       inkscape:collect="always"
       xlink:href="#linearGradient5736"
       id="linearGradient5742"
       x1="178.71019"
       y1="756.19879"
       x2="178.71019"
       y2="713.37854"
       gradientUnits="userSpaceOnUse"
       gradientTransform="matrix(0.3568923,-0.6404992,0.6341337,0.3575984,-274.82195,244.88236)" />
    <linearGradient
       inkscape:collect="always"
       xlink:href="#linearGradient5744"
       id="linearGradient5750"
       x1="413.54416"
       y1="765.12329"
       x2="413.16312"
       y2="705.01361"
       gradientUnits="userSpaceOnUse"
       gradientTransform="matrix(0.3568923,-0.6404992,0.6341337,0.3575984,-274.82195,244.88236)" />
  </defs>
  <sodipodi:namedview
     id="base"
     pagecolor="#ffffff"
     bordercolor="#666666"
     borderopacity="1.0"
     gridtolerance="10000"
     guidetolerance="10"
     objecttolerance="10"
     inkscape:pageopacity="0.0"
     inkscape:pageshadow="2"
     inkscape:zoom="0.90509668"
     inkscape:cx="19.827592"
     inkscape:cy="269.41957"
     inkscape:document-units="px"
     inkscape:current-layer="layer1"
     showgrid="false"
     showguides="true"
     inkscape:showpageshadow="false"
     inkscape:window-width="1029"
     inkscape:window-height="676"
     inkscape:window-x="189"
     inkscape:window-y="245"
     showborder="true">
    <inkscape:grid
       type="xygrid"
       visible="true"
       enabled="true"
       id="grid2393" />
  </sodipodi:namedview>
  <metadata
     id="metadata7">
    <rdf:RDF>
      <cc:Work
         rdf:about="">
        <dc:format>image/svg+xml</dc:format>
        <dc:type
           rdf:resource="http://purl.org/dc/dcmitype/StillImage" />
      </cc:Work>
    </rdf:RDF>
  </metadata>
  <g
     inkscape:label="Layer 1"
     inkscape:groupmode="layer"
     id="layer1">
    <rect
       ry="90"
       rx="90"
       y="10.602222"
       x="11.58176"
       height="576.74463"
       width="577.10175"
       id="rect2390"
       style="opacity:1;fill:none;fill-opacity:1;stroke:none;stroke-width:1;stroke-linecap:round;stroke-linejoin:miter;stroke-miterlimit:4;stroke-dasharray:none;stroke-dashoffset:0;stroke-opacity:1"
       inkscape:export-filename="P:\TELMA.V20\telma.v20_10_11\Projects\Interfaces\BaseInterface\CurveEditor\CurveEditorPanel\images\SaveAs.png"
       inkscape:export-xdpi="4.9935446"
       inkscape:export-ydpi="4.9935446" />
    <rect
       style="opacity:1;fill:none;fill-opacity:0;stroke:none;stroke-width:23.16965866000000000;stroke-linecap:round;stroke-linejoin:miter;stroke-miterlimit:4;stroke-dasharray:none;stroke-dashoffset:0;stroke-opacity:1"
       id="rect5264"
       width="577.10175"
       height="576.74463"
       x="11.581718"
       y="11.612374"
       rx="90"
       ry="90"
       inkscape:export-filename="D:\Documents and Settings\Маша\Рабочий стол\TELMA.V20\Projects\Interfaces\CurveEditor\CurveEditorPanel\images\SaveAs.png"
       inkscape:export-xdpi="4.7978296"
       inkscape:export-ydpi="4.7978296" />
  </g>
  <g
     inkscape:groupmode="layer"
     id="layer4"
     inkscape:label="Дискета"
     sodipodi:insensitive="true">
    <path
       style="fill:url(#linearGradient5695);fill-opacity:1;fill-rule:evenodd;stroke:#000000;stroke-width:8;stroke-linecap:butt;stroke-linejoin:miter;stroke-miterlimit:4;stroke-dasharray:none;stroke-opacity:1"
       d="M 81.770388,79.557746 L 81.770388,466.2765 L 131.77039,519.4015 L 519.27038,517.839 L 518.48913,81.901496 L 81.770388,79.557746 z"
       id="path5669" />
  </g>
  <g
     inkscape:groupmode="layer"
     id="layer3"
     inkscape:label="Белок"
     sodipodi:insensitive="true">
    <rect
       style="opacity:1;fill:#ffffff;fill-opacity:1;stroke:#000000;stroke-width:0;stroke-linecap:square;stroke-linejoin:round;stroke-miterlimit:4;stroke-dasharray:none;stroke-dashoffset:0;stroke-opacity:1"
       id="rect5671"
       width="216.87032"
       height="120.77657"
       x="195.95222"
       y="400.40005" />
  </g>
  <g
     inkscape:groupmode="layer"
     id="layer2"
     inkscape:label="Линия"
     sodipodi:insensitive="true">
    <rect
       style="opacity:1;fill:#ebedec;fill-opacity:1;stroke:#000000;stroke-width:8;stroke-linecap:square;stroke-linejoin:miter;stroke-miterlimit:4;stroke-dasharray:none;stroke-dashoffset:0;stroke-opacity:1"
       id="rect5652"
       width="296.875"
       height="162.5"
       x="156.25"
       y="95.3125" />
    <rect
       style="opacity:1;fill:url(#radialGradient5666);fill-opacity:1;stroke:#000000;stroke-width:2;stroke-linecap:square;stroke-linejoin:miter;stroke-miterlimit:4;stroke-dasharray:none;stroke-dashoffset:0;stroke-opacity:1"
       id="rect5654"
       width="216.87032"
       height="120.77657"
       x="195.47108"
       y="400.1586" />
    <rect
       style="opacity:1;fill:#389cff;fill-opacity:1;stroke:#000000;stroke-width:1.84929347;stroke-linecap:square;stroke-linejoin:miter;stroke-miterlimit:4;stroke-dasharray:none;stroke-dashoffset:0;stroke-opacity:1"
       id="rect5656"
       width="54.838207"
       height="95.463203"
       x="211.6434"
       y="413.2059" />
    <path
       style="fill:#389cff;fill-opacity:1;fill-rule:evenodd;stroke:#a4a2a2;stroke-width:20;stroke-linecap:round;stroke-linejoin:miter;stroke-miterlimit:4;stroke-dasharray:none;stroke-opacity:1"
       d="M 189.9993,126.56991 L 419.32788,126.56991"
       id="path5675" />
    <path
       id="path5685"
       d="M 189.9993,221.58738 L 419.32788,221.58738"
       style="fill:#389cff;fill-opacity:1;fill-rule:evenodd;stroke:#a4a2a2;stroke-width:20;stroke-linecap:round;stroke-linejoin:miter;stroke-miterlimit:4;stroke-dasharray:none;stroke-opacity:1" />
    <path
       style="fill:#389cff;fill-opacity:1;fill-rule:evenodd;stroke:#a4a2a2;stroke-width:20;stroke-linecap:round;stroke-linejoin:miter;stroke-miterlimit:4;stroke-dasharray:none;stroke-opacity:1"
       d="M 189.9993,171.86894 L 419.32788,171.86894"
       id="path5687" />
  </g>
  <g
     inkscape:groupmode="layer"
     id="layer8"
     inkscape:label="Белок2">
    <path
       style="fill:#ffffff;fill-opacity:1;fill-rule:evenodd;stroke:#000000;stroke-width:0;stroke-linecap:butt;stroke-linejoin:miter;stroke-miterlimit:4;stroke-dasharray:none;stroke-opacity:1"
       d="M 250.79777,357.80995 L 287.87635,378.02165 L 431.77894,120.17897 L 394.29548,99.04143 L 250.79777,357.80995 z"
       id="path5763" />
    <path
       style="fill:#ffffff;fill-opacity:1;fill-rule:evenodd;stroke:#000000;stroke-width:0;stroke-linecap:butt;stroke-linejoin:miter;stroke-miterlimit:4;stroke-dasharray:none;stroke-opacity:1"
       d="M 235.28207,415.31355 L 224.88367,453.83915 L 250.1757,423.05465 L 235.28207,415.31355 z"
       id="path5765" />
    <path
       style="fill:#ffffff;fill-opacity:1;fill-rule:evenodd;stroke:#000000;stroke-width:0;stroke-linecap:butt;stroke-linejoin:miter;stroke-miterlimit:4;stroke-dasharray:none;stroke-opacity:1"
       d="M 250.7212,357.53425 L 235.33617,414.88965 L 250.07129,422.73405 L 287.87635,378.02165 L 250.7212,357.53425 z"
       id="path5767" />
  </g>
  <g
     inkscape:groupmode="layer"
     id="layer5"
     inkscape:label="Карандаш">
    <path
       style="fill:url(#linearGradient5750);fill-opacity:1;fill-rule:evenodd;stroke:#000000;stroke-width:2.9224267;stroke-linecap:butt;stroke-linejoin:miter;stroke-miterlimit:4;stroke-dasharray:none;stroke-opacity:1"
       d="M 250.67474,358.23748 L 287.75332,378.44917 L 431.65591,120.60653 L 394.17245,99.468993 L 250.67474,358.23748 z"
       id="path5726" />
  </g>
  <g
     inkscape:groupmode="layer"
     id="layer6"
     inkscape:label="Грифель">
    <path
       style="fill:#000000;fill-opacity:1;fill-rule:evenodd;stroke:#000000;stroke-width:2.9224267;stroke-linecap:butt;stroke-linejoin:miter;stroke-miterlimit:4;stroke-dasharray:none;stroke-opacity:1"
       d="M 235.15904,415.74106 L 224.76064,454.26673 L 250.05267,423.48219 L 235.15904,415.74106 z"
       id="path5721" />
  </g>
  <g
     inkscape:groupmode="layer"
     id="layer7"
     inkscape:label="Срез">
    <path
       style="fill:url(#linearGradient5742);fill-opacity:1;fill-rule:evenodd;stroke:#000000;stroke-width:2.9224267;stroke-linecap:butt;stroke-linejoin:miter;stroke-miterlimit:4;stroke-dasharray:none;stroke-opacity:1"
       d="M 250.59817,357.96178 L 235.21314,415.31721 L 249.94826,423.16158 L 287.75332,378.44917 L 250.59817,357.96178 z"
       id="path5724" />
  </g>
</svg>

<svg xmlns="http://www.w3.org/2000/svg" width="600" height="600"><defs><radialGradient id="A" cx="331.675" cy="453.25" fx="331.675" fy="453.25" r="109.594" gradientTransform="matrix(2.668377,0.3560931,-0.1829153,1.3706722,-430.10902,-260.0676)" gradientUnits="userSpaceOnUse"><stop offset="0" stop-color="#adaeb1"/><stop offset="1" stop-color="#adaeb1" stop-opacity="0"/></radialGradient><linearGradient id="B" x1="112.145" y1="451.042" x2="557.645" y2="-75.52" gradientUnits="userSpaceOnUse"><stop offset="0" stop-color="#389ce5"/><stop offset="1" stop-color="#389ce5" stop-opacity="0"/></linearGradient><linearGradient id="C" x1="178.71" y1="756.199" x2="178.71" y2="713.379" gradientTransform="matrix(0.3568923,-0.6404992,0.6341337,0.3575984,-274.82195,244.88236)" gradientUnits="userSpaceOnUse"><stop offset="0" stop-color="#ffb657"/><stop offset="1" stop-color="#ffb657" stop-opacity="0"/></linearGradient><linearGradient id="D" x1="413.544" y1="765.123" x2="413.163" y2="705.014" gradientTransform="matrix(0.3568923,-0.6404992,0.6341337,0.3575984,-274.82195,244.88236)" gradientUnits="userSpaceOnUse"><stop offset="0" stop-color="#ff7600"/><stop offset="1" stop-color="#ff7600" stop-opacity="0"/></linearGradient></defs><path d="M81.77 79.558v386.719l50 53.125 387.5-1.562-.781-435.938L81.77 79.558z" fill="url(#B)" fill-rule="evenodd" stroke="#000" stroke-width="8"/><path d="M195.952 400.4h216.87v120.777h-216.87z" fill="#fff"/><g stroke="#000"><path d="M156.25 95.313h296.875v162.5H156.25z" fill="#ebedec" stroke-width="8"/><path d="M195.471 400.159h216.87v120.777h-216.87z" fill="url(#A)" stroke-width="2"/><path d="M211.643 413.206h54.838v95.463h-54.838z" stroke-width="1.849" fill="#389cff"/></g><g fill-rule="evenodd"><g stroke="#a4a2a2" stroke-width="20" stroke-linecap="round"><path d="M189.999 126.57h229.329m-229.329 95.017h229.329" fill="#389cff"/><path d="M189.999 171.869h229.329" fill="#389cff"/></g><g fill="#fff"><path d="M250.798 357.81l37.079 20.212L431.78 120.179l-37.483-21.138L250.798 357.81zm-15.516 57.504l-10.398 38.526 25.292-30.785-14.894-7.741z"/><path d="M250.721 357.534l-15.385 57.355 14.735 7.844 37.805-44.712-37.155-20.487z"/></g><g stroke="#000" stroke-width="2.922"><path d="M250.675 358.237l37.079 20.212 143.903-257.843-37.483-21.138-143.498 258.768z" fill="url(#D)"/><path d="M235.159 415.741l-10.398 38.526 25.292-30.785-14.894-7.741z"/><path d="M250.598 357.962l-15.385 57.355 14.735 7.844 37.805-44.712-37.155-20.487z" fill="url(#C)"/></g></g></svg>
